!!!ONB: MCCC : IJH0411_02 : Extracted Monophonic Melody
!!!COM: Haydn, Joseph
!!!OPR: String Quartet in B-flat major
!!!OMV: 2
!!!SCT: Hob.III:62 ; Op.55 No.3
!!!ODT: 1788///
**kern
*thru
*>A
*clefG2
*k[b-e-a-]
*E-:
*M2/4
8b-
64r
64r
64r
64r
64r
64r
64r
64r
64r
64r
64r
64r
64r
64r
64r
64r
64r
64r
64r
64r
64r
64r
64r
64r
=1
4ee-
16.dd
32ee-
16.ee-
64dd
64ee-
=2
8ff
8ff
8r
8b-
=3
4gg
16.ff
32gg
16.gg
64ff
64gg
=4
8aa-
8aa-
8r
8ccc
=5
8.dd
32ee-
32ff
8ee-
8b-
=6
4.b-
16a-
16g
=7
8f
16.g
64f
64g
8a-
32g
32f
32g
32a-
=8
4g
8f
=9
*>A
8b-
64r
64r
64r
64r
64r
64r
64r
64r
64r
64r
64r
64r
64r
64r
64r
64r
64r
64r
64r
64r
64r
64r
64r
64r
=10
4ee-
16.dd
32ee-
16.ee-
64dd
64ee-
=11
8ff
8ff
8r
8b-
=12
4gg
16.ff
32gg
16.gg
64ff
64gg
=13
8aa-
8aa-
8r
8ccc
=14
8.dd
32ee-
32ff
8ee-
8b-
=15
4.b-
16a-
16g
=16
8f
16.g
64f
64g
8a-
32g
32f
32g
32a-
=17
4g
8f
=18
*>B
8ff
64r
64r
64r
64r
64r
64r
64r
64r
64r
64r
64r
64r
64r
64r
64r
64r
64r
64r
64r
64r
64r
64r
64r
64r
=19
4b-[
16b-]
16ff#
16gg
16ee-
=20
4.cc
8ff
=21
2ff[
=22
4.ff]
16ee-
16dd
=23
16cc
16cc
16dd
16ee-
8b-
16.cc
32b-
=24
4b-[
16b-]
16b-
16dd-
16cc
=25
16b-
16a
16a-
16ff
16a-
16g
16ee-
16g
=26
8g
8f
8r
8b-
=27
4ee-
16.dd
32ee-
16.ee-
64dd
64ee-
=28
8ff
8ff
8r
8b-
=29
4gg
16.ff
32gg
16.gg
64ff
64gg
=30
8aa-
8aa-
8r
8ccc
=31
8.dd
32ee-
32ff
8ee-
8b-
=32
4b-
8a
8a-[
=33
16a-]
16g
16f
16cc
8e-
16.f
32e-
=34
4e-
8r
=35
*>B
8ff
64r
64r
64r
64r
64r
64r
64r
64r
64r
64r
64r
64r
64r
64r
64r
64r
64r
64r
64r
64r
64r
64r
64r
64r
=36
4b-[
16b-]
16ff#
16gg
16ee-
=37
4.cc
8ff
=38
2ff[
=39
4.ff]
16ee-
16dd
=40
16cc
16cc
16dd
16ee-
8b-
16.cc
32b-
=41
4b-[
16b-]
16b-
16dd-
16cc
=42
16b-
16a
16a-
16ff
16a-
16g
16ee-
16g
=43
8g
8f
8r
8b-
=44
4ee-
16.dd
32ee-
16.ee-
64dd
64ee-
=45
8ff
8ff
8r
8b-
=46
4gg
16.ff
32gg
16.gg
64ff
64gg
=47
8aa-
8aa-
8r
8ccc
=48
8.dd
32ee-
32ff
8ee-
8b-
=49
4b-
8a
8a-[
=50
16a-]
16g
16f
16cc
8e-
16.f
32e-
=51
4e-
8r
=52
*>C
8r
64r
64r
64r
64r
64r
64r
64r
64r
64r
64r
64r
64r
64r
64r
64r
64r
64r
64r
64r
64r
64r
64r
64r
64r
=53
2r
=54
32r
32bb-
32aa
32bb-
32aa
32bb-
32ccc
32bb-
32aa-
32gg
32ff
32ee-
32dd
32cc
32b-
32a-
=55
4g
4r
=56
32r
32eee-
32ddd
32eee-
32ddd
32eee-
32fff
32eee-
32ddd
32ccc
32bb-
32aa-
32gg
32ff
32aa-
32ccc
=57
32ee-
32dd
32ccc
32bb-
32ee-
32dd
32ccc
32bb-
32aa-
32gg
32ff
32ee-
32dd
32ee-
32ff
32ee-
=58
32cc
32b-
32b-
32b-
32dd-
32cc
32cc
32cc
32dd-
32cc
32dd-
32cc
32b-
32a-
32g
32f
=59
32e-
32d
32cc
32b-
32f
32e-
32cc
32b-
32a
32b-
32a-
32ff
32a-
32g
32ee-
32g
=60
8.b-
64a-
64g
64f
64g
8f
=61
*>C
8r
64r
64r
64r
64r
64r
64r
64r
64r
64r
64r
64r
64r
64r
64r
64r
64r
64r
64r
64r
64r
64r
64r
64r
64r
=62
2r
=63
32r
32bb-
32aa
32bb-
32aa
32bb-
32ccc
32bb-
32aa-
32gg
32ff
32ee-
32dd
32cc
32b-
32a-
=64
4g
4r
=65
32r
32eee-
32ddd
32eee-
32ddd
32eee-
32fff
32eee-
32ddd
32ccc
32bb-
32aa-
32gg
32ff
32aa-
32ccc
=66
32ee-
32dd
32ccc
32bb-
32ee-
32dd
32ccc
32bb-
32aa-
32gg
32ff
32ee-
32dd
32ee-
32ff
32ee-
=67
32cc
32b-
32b-
32b-
32dd-
32cc
32cc
32cc
32dd-
32cc
32dd-
32cc
32b-
32a-
32g
32f
=68
32e-
32d
32cc
32b-
32f
32e-
32cc
32b-
32a
32b-
32a-
32ff
32a-
32g
32ee-
32g
=69
8.b-
64a-
64g
64f
64g
8f
=70
*>D
8ff
64r
64r
64r
64r
64r
64r
64r
64r
64r
64r
64r
64r
64r
64r
64r
64r
64r
64r
64r
64r
64r
64r
64r
64r
=71
4b-[
32b-]
32ff#
32gg
32ff#
32gg
32ff#
32gg
32ee-
=72
4cc[
32cc]
32ff
32ee
32ff
32ee
32ff
32gg
32ff
=73
2ff[
=74
4.ff]
32ff
32ee-
32ee-
32dd
=75
32dd
32cc
32b
32cc
32dd
32ee-
32ff#
32gg
8b-
16.cc
32b-
=76
4b-[
32b-]
32a
32b-
32cc
32ee-
32dd-
32cc
32b-
=77
32b-
32a
32b-
32a
32b-
32a-
32ff
32a-
32a-
32g
32a-
32b-
32b
32cc
32a-
32f
=78
8.e-
32f
32e-
8d
8r
=79
2r
=80
32r
32bb-
32aa
32bb-
32aa
32bb-
32ccc
32bb-
32aa-
32gg
32ff
32ee-
32dd
32cc
32b-
32a-
=81
4g
4r
=82
32r
32eee-
32ddd
32eee-
32ddd
32eee-
32fff
32eee-
32ddd
32ccc
32bb-
32aa-
32gg
32ff
32aa-
32ccc
=83
32ee-
32dd
32ccc
32bb-
32ee-
32dd
32ccc
32bb-
32aa-
32gg
32ff
32ee-
32dd
32ee-
32ff
32ee-
=84
32cc
32b-
32b-
32b-
32gg
32b-
32b-
32b-
32b-
32a
32a
32a
32ff
32a-
32a-
32a-
=85
32a-
32g
32f#
32g
32e
32f
32a-
32cc
8e-
16.f
32e-
=86
4e-
8r
=87
*>D
8ff
64r
64r
64r
64r
64r
64r
64r
64r
64r
64r
64r
64r
64r
64r
64r
64r
64r
64r
64r
64r
64r
64r
64r
64r
=88
4b-[
32b-]
32ff#
32gg
32ff#
32gg
32ff#
32gg
32ee-
=89
4cc[
32cc]
32ff
32ee
32ff
32ee
32ff
32gg
32ff
=90
2ff[
=91
4.ff]
32ff
32ee-
32ee-
32dd
=92
32dd
32cc
32b
32cc
32dd
32ee-
32ff#
32gg
8b-
16.cc
32b-
=93
4b-[
32b-]
32a
32b-
32cc
32ee-
32dd-
32cc
32b-
=94
32b-
32a
32b-
32a
32b-
32a-
32ff
32a-
32a-
32g
32a-
32b-
32b
32cc
32a-
32f
=95
8.e-
32f
32e-
8d
8r
=96
2r
=97
32r
32bb-
32aa
32bb-
32aa
32bb-
32ccc
32bb-
32aa-
32gg
32ff
32ee-
32dd
32cc
32b-
32a-
=98
4g
4r
=99
32r
32eee-
32ddd
32eee-
32ddd
32eee-
32fff
32eee-
32ddd
32ccc
32bb-
32aa-
32gg
32ff
32aa-
32ccc
=100
32ee-
32dd
32ccc
32bb-
32ee-
32dd
32ccc
32bb-
32aa-
32gg
32ff
32ee-
32dd
32ee-
32ff
32ee-
=101
32cc
32b-
32b-
32b-
32gg
32b-
32b-
32b-
32b-
32a
32a
32a
32ff
32a-
32a-
32a-
=102
32a-
32g
32f#
32g
32e
32f
32a-
32cc
8e-
16.f
32e-
=103
4e-
8r
=104
*>E
8r
64r
64r
64r
64r
64r
64r
64r
64r
64r
64r
64r
64r
64r
64r
64r
64r
64r
64r
64r
64r
64r
64r
64r
64r
=105
2r
=106
4r
8r
8e-
=107
4a-
16.g
32a
16.a
64g
64a
=108
8b-
8b-
8r
8a-
=109
4dd-
16.cc
32dd
16.dd
64cc
64dd
=110
8ee-
8ee-
8dd
8dd-
=111
16.cc
32dd
16.ee-
32b-
16.a-
32f
16.g
32a-
=112
4g
8f
8ff
=113
4b-[
16b-]
16ff#
16gg
16ee-
=114
4.cc
8ff
=115
2ff[
=116
4.ff]
16ee-
16dd
=117
16cc
16cc
16dd
16ee-
8b-
16.cc
32b-
=118
4b-[
16b-]
16b-
16dd-
16cc
=119
16b-
16a
16a-
16ff
16a-
16g
16ee-
16g
=120
8g
8f
8r
8b-
=121
4ee-
16.dd
32ee-
16.ee-
64dd
64ee-
=122
8ff
8ff
8r
8ee-
=123
4aa-
16.gg
32aa
16.aa
64gg
64aa
=124
4bb-
8aa
8aa-[
=125
16aa-]
16gg
16ff
16ccc
8ee-
16.ff
32ee-
=126
4ee-
8r
8b-
=127
4ee-
16.dd
32ee-
16.ee-
64dd
64ee-
=128
8ff
8ff
8r
8b-
=129
4gg
16.ff
32gg
16.gg
64ff
64gg
=130
8aa-
8aa-
8r
8ccc
=131
8.dd
32ee-
32ff
8ee-
16b-
16b-
=132
16b-
16r
16b-
16b-
16a
16r
16a-
16a-
=133
16a-
16g
16f
16cc
8e-
16.f
32e-
=134
8e-
8r
16f
16f
16.f
64e-
64f
=135
8b-
16g
16e-
16f
16f
32f
32e-
32f
32g
=136
8e-
8r
32f
32g
32a-
32b-
32cc
32dd
32ee-
32ff
=137
16gg
16ee-
16b-
16g
32f
32cc
32b-
32a-
32g
32f
32a-
32f
=138
8e-
8e-
8e-
8r
==
*-
